!!!!SEGMENT: pl-kk--kk-i-382--023-003_anonim--nro-8-sanctus.krn
!!!cenid: 18xx:1498
!!!COM: Anonim
!!!COM-rismID:
!!!CDT:
!!!CNT:
!!!OPR: Nro 8
!!!OTL: Sanctus
!!!OMV: 003
!!!PDT:
!!!AGN: Sacred
!!!SMS-siglum: PL-Kk
!!!SMS-shelfmark: Kk.I.382
!!!SMS-shelfwork: 008-003 M
!!!SMS-variant:
!!!SMS-altvar:
!!!NIFC-rismSourceID: 1001139140
!!!NIFC-islandoraID: pl-kk:6162
!!!URL-pdf-islandora: https://repozytorium.nifc.pl/islandora/object/pl-kk%3A6162/datastream/PDF/view
!!!URL-scan: https://polish.musicsources.pl/pl/lokalizacje/galeria/rekopisy/5994 @EN{Scan on Polish Music Herritage in Open Access Website} @PL{Skany w portalu Dziedzictwo Muzyki Polskiej w otwartym dostępie}
!!!ONB-nifc: UWAGA: obsada: S (T 1), A (B 1), T 2, B 2; S (T 1): skan 0022-0023; A (B 1): skan 0169; T 2: skan 0094; B 2: skan 0240-0241
!!!AIN: 1 alto 1 bass 2 tenor
!!!key:
**kern	**text	**dynam	**kern	**text	**kern	**text	**kern	**text
*part4	*part4	*part4	*part2	*part2	*part3	*part3	*part1	*part1
*staff4	*staff4	*	*staff2	*staff2	*staff3	*staff3	*staff1	*staff1
*Ibass	*	*	*Itenor	*	*Ialto	*	*Itenor	*
*I"Basso II	*	*	*I"Tenore II	*	*I"Alto vel Basso I	*	*I"Soprano vel Tenore I.	*
*I'B 2	*	*	*I'A (B 1)	*	*I'T 2	*	*I'S (T 1)	*
*clefF4	*	*	*clefC4	*	*clefC3	*	*clefC1	*
*k[]	*	*	*k[]	*	*k[]	*	*k[]	*
*C:	*	*	*C:	*	*C:	*	*C:	*
*M4/4	*	*	*M4/4	*	*M4/4	*	*M4/4	*
*met(C.)	*	*	*met(C.)	*	*met(C.)	*	*met(C.)	*
=1	=1	=1	=1	=1	=1	=1	=1	=1
*2\right	*	*	*2\right	*	*2\right	*	*2\right	*
!LO:TX:t=P:problem=all\right&colon; global	!	!	!LO:TX:t=P:problem=all\right&colon; global	!	!LO:TX:t=P:problem=all\right&colon; global	!	!LO:TX:t=P:problem=all\right&colon; global	!
!LO:TX:a:t=Sanctus	!	!	!LO:TX:a:t=Sanctus.	!	!LO:TX:a:t=Sanctus	!	!LO:TX:a:t=Sanctus.	!
!LO:TX:t=P:problem=napis "Sanctus" przed kluczem	!	!	!LO:TX:t=P:problem=napis "Sanctus." przed kluczem	!	!LO:TX:t=P:problem=napis "Sanctus" przed kluczem	!	!LO:TX:t=P:problem=napis "Sanctus." przed kluczem	!
2C/	San-	.	2c\	San-	2e\	San-	2g\	San-
2G\	-ctus	.	2B\	-ctus	2d\	-ctus	2g\	-ctus
=2	=2	=2	=2	=2	=2	=2	=2	=2
!LO:TX:a:t=P:problem=oznaczenie dynamiczne na pięciolinii przed nutą	!	!LO:DY:b:t=p.:rj	!	!	!	!	!LO:TX:b:t=1.	!
8G\L	San-	p	(>(>8G\L	san-	(>8B\L	San-	1r	.
8A\	.	.	8A\)	.	8c\)	.	.	.
8A\	.	.	(>8A\	.	(>8c\	.	.	.
8B\J	.	.	8B\J))	.	8d\J)	.	.	.
8B\L	-ctus	.	(>(>8B\L	-ctus	(>8d\L	-ctus	.	.
8c\	.	.	8c\)	.	8e\)	.	.	.
8c\	.	.	(>8c\	.	(>8e\	.	.	.
8d\J	.	.	8d\J))	.	8f\J)	.	.	.
=3	=3	=3	=3	=3	=3	=3	=3	=3
!LO:TX:a:t=P:problem=oznaczenie dynamiczne na pięciolinii przed nutą	!	!LO:DY:b:t=f.:rj	!	!	!	!	!	!
2G\	San-	f	2d\	San-	2g\	San-	2b\	San-
2C/	-ctus	.	2c\	-ctus	2f\	-ctus	2g\	-ctus
=4	=4	=4	=4	=4	=4	=4	=4	=4
!	!	!	!	!	!	!	!LO:TX:b:t=1.	!
8G\L	San-	.	(>(>8e\L	San-	(>8g\L	San-	1r	.
8F\	.	.	8d\)	.	8f\)	.	.	.
8F\	.	.	(>8d\	.	(>8f\	.	.	.
8E\J	.	.	8c\J))	.	8e\J)	.	.	.
8G\L	.	.	(>8e\L	-ctus	(>8g\L	-ctus	.	.
8F\J	.	.	8d\)	.	8f\)	.	.	.
4C/	-ctus	.	(>8d\	.	(>8f\	.	.	.
.	.	.	8c\J)	.	8e\J)	.	.	.
!	!	!	!	!	!LO:LB:g=original	!	!	!
=5	=5	=5	=5	=5	=5	=5	=5	=5
2G\	San-	.	2c\	san-	2e\	San-	2g\	San-
2GG/	-ctus	.	2B\	-ctus	2d\	-ctus	2g\	-stuc
!	!	!	!LO:LB:g=original	!	!	!	!	!
=6	=6	=6	=6	=6	=6	=6	=6	=6
!	!	!	!	!	!	!	!LO:TX:b:t=1.	!
4G\	Do-	.	4B\	Do-	4d\	Do-	1r	.
8G\	-mi-	.	8B\	-mi-	8d\	-mi-	.	.
8G\	-nus,	.	8c\	-nus	8e\	-nus	.	.
!LO:LB:g=original	!	!	!	!	!	!	!	!
4G\	De-	.	(>8d\L	De-	(>8f\L	De-	.	.
.	.	.	8c\J)	.	8e\J)	.	.	.
4G\	-us	.	(>8d\L	-us	(>8f\L	-us	.	.
.	.	.	8B\J)	.	8d\J)	.	.	.
=7	=7	=7	=7	=7	=7	=7	=7	=7
4C/	Do-	.	4c\	Do-	4e\	Do-	4cc\	Do-
8C/	-mi-	.	8c\	-mi-	8e\	-mi-	8cc\	-mi-
8C/	-nus	.	8d\	-nus	8f\	-nus	8dd\	-nus
4C/	De-	.	(>8e\L	De-	(>8g\L	De-	(>8ee\L	De-
.	.	.	8d\J)	.	8f\J)	.	8dd\J)	.
4C/	-us	.	(>8e\L	-us	(>8g\L	-us	(>8ee\L	-us
.	.	.	8c\J)	.	8e\J)	.	8cc\J)	.
!	!	!	!	!	!	!	!LO:LB:g=original	!
=8	=8	=8	=8	=8	=8	=8	=8	=8
(>4C/	sa-	.	2.e\	Sa-	2.g\	Sa-	2.cc\	Sa-
4c\)	.	.	.	.	.	.	.	.
(>4A\	-ba-	.	.	.	.	.	.	.
4F#X\)	.	.	4d\	-ba-	4f#X\	-ba-	4a\	-ba-
=9	=9	=9	=9	=9	=9	=9	=9	=9
2.G\	-oth	.	1d	-oth.	1g	-oth	1b	-oth
4r	.	.	.	.	.	.	.	.
!	!	!	!	!	!	!	!LO:TX:a:t=P:problem=podwójna kreska	!
!	!	!	!LO:LB:g=original	!	!LO:LB:g=original	!	!	!
==10	==10	==10	==10	==10	==10	==10	==10	==10
*	*	*	*	*	*M4/4	*	*	*
*	*	*	*	*	*met(C.)	*	*	*
2G\	Ple-	.	2B\	ple-	2g\	Ple-	2dd\	Ple-
4A\	-ni	.	4c\	-ni	4f#X\	-ni	4cc\	-ni
4B\	sunt	.	4d\	sunt	4fn\	sunt	4g\	sunt
=11	=11	=11	=11	=11	=11	=11	=11	=11
!LO:SIC:l:v:s=cae-	!	!	!LO:SIC:l:v:s=cae-	!	!LO:SIC:l:v:s=cae-	!	!LO:SIC:l:v:s=cae-	!
(>4c\	ce-	.	(>4c\	ce-	(>4e\	ce-	2g\	ce-
4G\)	.	.	4d\)	.	4f\)	.	.	.
4E\	-li	.	4e\	-li	(>8a\L	-li	4g\	-li
.	.	.	.	.	8g\J)	.	.	.
4C/	et	.	(>8d\L	et	(>8f\L	et	4g\	et
.	.	.	8c\J)	.	8e\J)	.	.	.
!LO:LB:g=original	!	!	!	!	!	!	!	!
=12	=12	=12	=12	=12	=12	=12	=12	=12
2G\	ter-	.	2c\	ter-	2e\	ter-	2g\	ter-
2GG/	-ra	.	2B\	-ra	2d\	-ra	2g\	-ra
=13	=13	=13	=13	=13	=13	=13	=13	=13
(>2GG/	glo-	.	(>4B\	glo-	(>4d\	glo-	2g\	glo-
.	.	.	4c\)	.	4e\)	.	.	.
4G\)	.	.	4d\	-ri-	(>8g\L	-ri-	4g\	-ri-
.	.	.	.	.	8f\J)	.	.	.
8F\	-ri-	.	(>8c\L	-a	(>8e\L	-a	4b\	-a
8F\	-a	.	8B\J)	.	8d\J)	.	.	.
!	!	!	!	!	!	!	!LO:LB:g=original	!
=14	=14	=14	=14	=14	=14	=14	=14	=14
(>4E\	tu-	.	(>4c\	tu-	(>4e\	tu-	(>4g\	tu-
4D\)	.	.	4d\)	.	4f\)	.	4b\)	.
2C/	-a	.	2e\	-a	2g\	-a	2cc\	-a
!	!	!	!LO:LB:g=original	!	!LO:LB:g=original	!	!	!
=15	=15	=15	=15	=15	=15	=15	=15	=15
2BB/	glo-	.	2d\	glo-	2g\	glo-	2g\	glo-
4C/	-ri-	.	4e\	-ri-	4g\	-ri-	4g\	-ri-
4C/	-a	.	4e\	-a	4g\	-a	4g\	-a
=16	=16	=16	=16	=16	=16	=16	=16	=16
2G\	tu-	.	(>2e\	tu-	1g	tu-	(>2cc\	tu-
2GG/	.	.	2d\)	.	.	.	2b\)	.
=17	=17	=17	=17	=17	=17	=17	=17	=17
!	!	!	!	!	!	!	!LO:TX:i:a:t=Seque Osanna V&colon;S&colon;	!
!	!	!	!	!	!	!	!LO:TX:a:t=P:problem=napis na pięciolinii za kreską	!
1C	-a.	.	1e	-a.	1g	-a.	1cc	-a.
!LO:LB:g=original	!	!	!	!	!LO:LB:g=original	!	!LO:PB:g=original	!
==18	==18	==18	==18	==18	==18	==18	==18	==18
*	*	*	*	*	*	*	*k[b-]	*
*M4/4	*	*	*M4/4	*	*M4/4	*	*M4/4	*
*met(C.)	*	*	*met(C.)	*	*met(C.)	*	*met(C.)	*
!LO:TX:a:t=Osanna	!	!	!	!	!LO:TX:a:t=Osanna	!	!	!
!LO:TX:a:t=P:problem=napis na pięciolinii przed kluczem	!	!	!	!	!LO:TX:a:t=P:problem=napis na pięciolinii przed kluczem	!	!	!
(>4C/	O-	.	2e\	O-	2g\	O-	2cc\	O-
4E\)	.	.	.	.	.	.	.	.
(>4G\	-san-	.	2d\	-san-	2f\	-san-	2bn\	-san-
4GG/)	.	.	.	.	.	.	.	.
=19	=19	=19	=19	=19	=19	=19	=19	=19
2C/	-na	.	2c\	-na	2e\	-na	2g\	-na
4r	.	.	4r	.	4r	.	4r	.
!	!	!	!	!	!	!	!LO:TX:a:t=P:problem=brak podpisanego tekstu pod nutami. Nuty przekreślone ołówkiem.	!
4E\	O-	.	4G/	o-	4e\	o-	4a\	.
=20	=20	=20	=20	=20	=20	=20	=20	=20
4F\	-san-	.	4A/	-san-	4f\	-san-	(>4g\	.
4E\	-na	.	4G/	-na	4e\	-na	4a\	.
4F\	in	.	4A/	in	4f\	in	8cc\L	.
.	.	.	.	.	.	.	8b-X\	.
4D\	ex-	.	4B/	ex-	4d\	ex-	8a\	.
.	.	.	.	.	.	.	8g\J)	.
!	!	!	!LO:LB:g=original	!	!	!	!	!
=21	=21	=21	=21	=21	=21	=21	=21	=21
(>4E\	-cel-	.	(>4c\	-cel-	(>4e\	-cel-	2a\	.
4F\)	.	.	4d\)	.	4f\)	.	.	.
4G\	-sis	.	4e\	-sis	4g\	-sis	4r	.
4C/	O-	.	4e\	o-	4g\	O-	4cc\	O-
=22	=22	=22	=22	=22	=22	=22	=22	=22
4C/	-san-	.	(>4e\	-san-	(>4g\	-san-	(>2cc\	-san-
4BB/	-na	.	(>4d\)	.	4f\	.	.	.
!LO:LB:g=original	!	!	!	!	!	!	!	!
4BB/	in	.	(>4d\)	.	4f\	.	2g\)	.
4C/	ex-	.	4c\)	.	4e\)	.	.	.
=23	=23	=23	=23	=23	=23	=23	=23	=23
4GG/	-cel-	.	2B\	-na	2d\	-na	2g\	-na
4GG/	-sis	.	.	.	.	.	.	.
4r	.	.	4r	.	4r	.	4r	.
4G\	O-	.	(>8B\L	o-	(>8d\L	O-	4g\	o-
.	.	.	8c\J)	.	8e\J)	.	.	.
!	!	!	!	!	!LO:LB:g=original	!	!	!
=24	=24	=24	=24	=24	=24	=24	=24	=24
4G\	-san-	.	4d\	-san-	4f\	-san-	4bn\	-san-
4D\	-na	.	4d\	-na	4f\	-na	4b\	-na
4BB/	in	.	(>8e\L	in	(>8g\L	in	4b\	in
.	.	.	8d\J)	.	8f\J)	.	.	.
4GG/	ex-	.	(>8c\L	ex-	(>8e\L	ex-	4b\	ex-
.	.	.	8B\J)	.	8d\J)	.	.	.
!	!	!	!	!	!	!	!LO:LB:g=original	!
=25	=25	=25	=25	=25	=25	=25	=25	=25
4C/	-cel-	.	(>4c\	-cel-	(>4e\	-cel-	2g\	-cel-
4BB/	-sis	.	4d\)	.	4f\)	.	.	.
4C/	in	.	4c\	-sis	4e\	-sis	4g\	-sis
!	!	!	!LO:LB:g=original	!	!	!	!	!
4E\	ex-	.	(>4e\	in	(>4g\	in	[>4cc\	in
=26	=26	=26	=26	=26	=26	=26	=26	=26
(>2F\	-cel-	.	4f\)	.	4a\)	.	4cc\]	.
.	.	.	(>8e\L	ex-	(>8g\L	ex-	4a\	ex-
.	.	.	8d\J)	.	8f\J)	.	.	.
2G\)	.	.	(>4c\	-cel-	(>4e\	-cel-	2g\	-cel-
.	.	.	4B\)	.	4d\)	.	.	.
=27	=27	=27	=27	=27	=27	=27	=27	=27
!LO:TX:b:i:t=Seque Benedictus V&colon;S&colon;	!	!	!	!	!	!	!	!
1C	-sis.	.	1c	-sis.	1e	-sis.	1g	-sis
!LO:PB:g=original	!	!	!LO:LB:g=original	!	!LO:PB:g=original	!	!LO:LB:g=original	!
==28	==28	==28	==28	==28	==28	==28	==28	==28
*	*	*	*	*	*	*	*k[]	*
*M3/4	*	*	*M3/4	*	*M3/4	*	*M3/4	*
!LO:TX:a:t=in a.\nBenedictus	!	!	!LO:TX:a:t=Benedictus.	!	!LO:TX:a:t=Benedictus	!	!LO:TX:a:t=Benedictus	!
!LO:TX:a:t=P:problem=napis przed kluczem	!	!	!LO:TX:a:t=P:problem=napis przed kluczem	!	!LO:TX:a:t=P:problem=napis przed kluczem	!	!LO:TX:a:t=P:problem=napis na pięciolinii przed kluczem	!
(>4AA/	Be-	.	(>8c\L	Be-	(>8a\L	Be-	2a\	Be-
.	.	.	16B\L	.	16g\L	.	.	.
.	.	.	16d\JJ	.	16f\JJ	.	.	.
4A\)	.	.	4c\)	.	4e\)	.	.	.
4G#X\	-ne-	.	4d\	-ne-	4f\	-ne	4b\	-ne-
=29	=29	=29	=29	=29	=29	=29	=29	=29
4G#X\	-dic-	.	4d\	-dic-	4f\	dic-	4b\	-dic-
4A\	-tus	.	4c\	-tus	4e\	-tus	4a\	-tus
4E\	qui	.	4B\	qui	4d\	qui	4g#X\	qui
=30	=30	=30	=30	=30	=30	=30	=30	=30
4AA/	ve-	.	4A/	ve-	4c/	ve-	4ee\	ve-
4E\	-nit	.	4G#X/	-nit	4B/	-nit	4ee\	-nit
4r	.	.	4r	.	4r	.	4r	.
=31	=31	=31	=31	=31	=31	=31	=31	=31
(>4AA/	Be-	.	(>8c\L	be-	(>8a\L	Be-	2a\	Be-
.	.	.	16B\L	.	16g\L	.	.	.
.	.	.	16d\JJ	.	16f\JJ	.	.	.
4A\)	.	.	4c\)	.	4e\)	.	.	.
4G#X\	-ne-	.	4d\	-ne-	4f\	-ne	4b\	-ne-
!	!	!	!LO:LB:g=original	!	!	!	!	!
=32	=32	=32	=32	=32	=32	=32	=32	=32
4G#X\	-dic-	.	4d\	-dic-	4f\	dic-	4b\	-dic-
4A\	-tus	.	4c\	-tus	4e\	-tus	4a\	-tus
4E\	qui	.	4B\	qui	4d\	qui	4g#X\	qui
!LO:LB:g=original	!	!	!	!	!LO:LB:g=original	!	!LO:LB:g=original	!
=33	=33	=33	=33	=33	=33	=33	=33	=33
4AA/	ve-	.	4A\	ve-	4c\	ve-	4ee\	ve-
4E\	-nit	.	4G#X/	-nit	4B\	-nit	4ee\	-nit
8r	.	.	8r	.	8r	.	8r	.
8E\	in	.	8c\	qui	8e\	in	8a\	qui
=34	=34	=34	=34	=34	=34	=34	=34	=34
[>2.E\	no-	.	4c\	ve-	[>2.e\	no-	4a\	ve-
.	.	.	(>8B\L	-nit	.	.	(>8g#X\L	-nit
.	.	.	8c\J)	.	.	.	8a\J)	.
.	.	.	4d\	in	.	.	4b\	in
=35	=35	=35	=35	=35	=35	=35	=35	=35
4.E\]	.	.	4d\	no-	4.e\]	.	4b\	no-
.	.	.	(>8c\L	-mi-	.	.	(>8a\L	-mi-
8E\	-mi-	.	8d\J)	.	8e\	-mi-	8b\J)	.
8E\	-ne	.	8c\	-ne	8e\	-ne	8a\	-ne
8A\	in	.	8c\	in	8e\	in	8a\	in
!	!	!	!LO:LB:g=original	!	!	!	!	!
=36	=36	=36	=36	=36	=36	=36	=36	=36
4A\	no-	.	4c\	no-	4e\	no-	4a\	no-
4G#X\	-mi-	.	4d\	-mi-	4e\	-mi-	4b\	-mi-
4A\	-ne	.	4c\	-ne	4e\	-ne	4a\	-ne
=37	=37	=37	=37	=37	=37	=37	=37	=37
8E\	Do-	.	8c\	Do-	8e\	Do-	8a\	Do-
8E\	-mi-	.	8B\	-mi-	8e\	-mi-	8g#X\	-mi-
4E\	-ni	.	4B\	-ni	4e\	-ni.	4g#\	-ni
4r	.	.	4r	.	4r	.	4r	.
!LO:LB:g=original	!	!	!	!	!LO:LB:g=original	!	!LO:LB:g=original	!
=38	=38	=38	=38	=38	=38	=38	=38	=38
(>4C/	Be-	.	(>8c\L	be-	(>8e\L	Be-	(>4gn\	Be-
.	.	.	16B\L	.	16d\L	.	.	.
.	.	.	16A\JJ	.	16f\JJ	.	.	.
4c\)	.	.	4G/)	.	4e\)	.	4cc\)	.
4c\	-ne-	.	4A/	-ne-	4f\	-ne-	4cc\	-ne-
=39	=39	=39	=39	=39	=39	=39	=39	=39
4c\	-dic-	.	4A/	-dic-	4f\	-dic-	4cc\	-dic-
4C/	-tus	.	4G/	-tus	4e\	-tus	4g\	-tus
4C/	qui	.	4e\	qui	4g\	qui	4g\	qui
=40	=40	=40	=40	=40	=40	=40	=40	=40
4C/	ve-	.	4e\	ve-	4g\	ve-	4g\	ve-
4BB/	-nit	.	4d\	-nit	4f\	-nit	4g\	-nit
4C/	qui	.	4c\	qui	4e\	qui	4g\	qui
!	!	!	!LO:LB:g=original	!	!	!	!	!
=41	=41	=41	=41	=41	=41	=41	=41	=41
4G\	ve-	.	4c\	ve-	4e\	ve-	4g\	ve-
4GG/	-nit	.	4B\	-nit	4d\	-nit	4g\	-nit
4G\	in	.	4d\	in	4f\	in	4g\	in
=42	=42	=42	=42	=42	=42	=42	=42	=42
4.E\	no-	.	4.c\	no-	4.e\	no-	4.g\	no-
8D\	-mi-	.	8d\	-mi-	8f\	-mi-	8b\	-mi-
4C/	-ne	.	4e\	-ne	4g\	-ne	4cc\	-ne
!	!	!	!	!	!LO:LB:g=original	!	!LO:LB:g=original	!
=43	=43	=43	=43	=43	=43	=43	=43	=43
(>4F\	Do-	.	16d\LL	Do-	(>16f\LL	Do-	(>4a\	Do-
.	.	.	16f\	.	16a\	.	.	.
.	.	.	16e\	.	16g\	.	.	.
.	.	.	16d\JJ	.	16f\JJ	.	.	.
4G\)	.	.	4c\	.	4e\)	.	4g\)	.
4GG/	-mi-	.	4B\	-mi-	4d\	-mi-	4g\	-mi-
!LO:LB:g=original	!	!	!	!	!	!	!	!
=44	=44	=44	=44	=44	=44	=44	=44	=44
4C/	-ni	.	4c\	-ni	4e\	-ni	4g\	-ni
4r	.	.	4r	.	4r	.	4r	.
4E\	qui	.	4c\	qui	4e\	qui	4a\	qui
=45	=45	=45	=45	=45	=45	=45	=45	=45
4E\	ve-	.	4c\	ve-	4e\	ve-	4a\	ve-
4E\	-nie	.	4B\	-nit	4e\	-nit	4g#X\	-nit
4E\	qui	.	4d\	qui	4e\	qui	4b\	qui
!	!	!	!LO:LB:g=original	!	!	!	!	!
=46	=46	=46	=46	=46	=46	=46	=46	=46
4E\	ve-	.	4d\	ve-	4e\	ve-	4b\	ve-
4E\	-nit	.	4c\	-nit	4e\	-nit	4a\	-nit
4AA/	in	.	4c\	in	4e\	in	4a\	in
=47	=47	=47	=47	=47	=47	=47	=47	=47
4.AA/	no-	.	4.e\	no-	4.c\	no-	4.cc\	no-
8BB/	-mi-	.	8d\	-mi-	8d\	-mi-	8b\	-mi-
4C/	-ne	.	4c\	-ne	4e\	-ne	4a\	-ne
!	!	!	!	!	!LO:LB:g=original	!	!	!
=48	=48	=48	=48	=48	=48	=48	=48	=48
(>4D\	Do-	.	(>4d\	Do-	(>4f\	Do-	2a\	Do-
4E\)	.	.	4c\)	.	4e\)	.	.	.
4E\	-mi-	.	4B\	-mi-	4e\	-mi-	4g#X\	-mi-
!	!	!	!	!	!	!	!LO:LB:g=original	!
=49	=49	=49	=49	=49	=49	=49	=49	=49
4AA/	-ni	.	4c\	-ni	4e\	-ni	4a\	-ni
4r	.	.	4r	.	4r	.	4r	.
4AA/	in	.	4c\	in	4e\	in	4a\	in
!LO:LB:g=original	!	!	!	!	!	!	!	!
=50	=50	=50	=50	=50	=50	=50	=50	=50
4.AA/	no-	.	4.e\	no-	4.c\	no-	4.cc\	no-
8BB/	-mi-	.	8d\	-mi-	8d\	-mi-	8b\	-mi-
4C/	-ne	.	4c\	-ne	4e\	-ne	4a\	-ne
!	!	!	!LO:LB:g=original	!	!	!	!	!
=51	=51	=51	=51	=51	=51	=51	=51	=51
(>4D\	Do-	.	(>4d\	Do-	(>4f\	Do-	(>4b\	Do-
4E\)	.	.	4c\)	.	4e\)	.	4a\)	.
4E\	-mi-	.	4B\	-mi-	4e\	-mi-	4g#X\	-mi-
=52	=52	=52	=52	=52	=52	=52	=52	=52
2.AA/	-ni.	.	2.c\	-ni.	2.e\	-ni.	2.a\	-ni.
!	!	!	!LO:TX:i:a:t=Osanna Da Capo. Seque Agnus. V&colon;S&colon;	!	!LO:TX:i:a:t=Osanna\nDa Capo.	!	!LO:TX:a:i:t=Osanna Da Capo.	!
!	!	!	!LO:TX:a:t=P:problem=napis na pięciolinii za kreską	!	!LO:TX:a:t=P:problem=napis na pięciolinii za kreską	!	!LO:TX:a:t=P:problem=napis na pięciolinii za kreską	!
==53	==53	==53	==53	==53	==53	==53	==53	==53
*	*	*	*	*	*	*	*k[b-]	*
*M4/4	*	*	*M4/4	*	*M4/4	*	*M4/4	*
*met(C.)	*	*	*met(C.)	*	*met(C.)	*	*met(C.)	*
(>4C\	O-	.	2e\yy	O-	2g\yy	O-	2cc\yy	O-
4E\)	.	.	.	.	.	.	.	.
(>4G\	-san-	.	2d\yy	-san-	2f\yy	-san-	2bn\yy	-san-
4GG/)	.	.	.	.	.	.	.	.
=54	=54	=54	=54	=54	=54	=54	=54	=54
2C/	-na	.	2c\yy	-na	2e\yy	-na	2g\yy	-na
4r	.	.	4ryy	.	4ryy	.	4ryy	.
!	!	!	!	!	!	!	!LO:TX:a:t=P:problem=brak podpisanego tekstu pod nutami. Nuty przekreślone ołówkiem.	!
4E\	o-	.	4G/yy	o-	4e\yy	o-	4a\yy	.
=55	=55	=55	=55	=55	=55	=55	=55	=55
4F\	-san-	.	4A/yy	-san-	4f\yy	-san-	(>4g\yy	.
4E\	-na	.	4G/yy	-na	4e\yy	-na	4a\yy	.
4F\	in	.	4A/yy	in	4f\yy	in	8cc\Lyy	.
.	.	.	.	.	.	.	8b-X\yy	.
4D\	ex-	.	4B/yy	ex-	4d\yy	ex-	8a\yy	.
.	.	.	.	.	.	.	8g\J)yy	.
=56	=56	=56	=56	=56	=56	=56	=56	=56
(>4E\	-cel-	.	(>4c\yy	-cel-	(>4e\yy	-cel-	2a\yy	.
4F\)	.	.	4d\)yy	.	4f\)yy	.	.	.
4G\	-sis	.	4e\yy	-sis	4g\yy	-sis	4ryy	.
4C/	o-	.	4e\yy	o-	4g\yy	O-	4cc\yy	O-
=57	=57	=57	=57	=57	=57	=57	=57	=57
4C/	-san-	.	(>4e\yy	-san-	(>4g\yy	-san-	(>2cc\yy	-san-
4BB/	-na	.	(>4d\)yy	.	4f\yy	.	.	.
4BB/	in	.	(>4d\)yy	.	4f\yy	.	2g\)yy	.
4C/	ex-	.	4c\)yy	.	4e\)yy	.	.	.
!LO:LB:g=original	!	!	!	!	!	!	!	!
=58	=58	=58	=58	=58	=58	=58	=58	=58
4GG/	-cel-	.	2B\yy	-na	2d\yy	-na	2g\yy	-na
4GG/	-sis	.	.	.	.	.	.	.
4r	.	.	4ryy	.	4ryy	.	4ryy	.
4G\	O-	.	(>8B\Lyy	o-	(>8d\Lyy	O-	4g\yy	o-
.	.	.	8c\J)yy	.	8e\J)yy	.	.	.
=59	=59	=59	=59	=59	=59	=59	=59	=59
4G\	-san-	.	4d\yy	-san-	4f\yy	-san-	4bn\yy	-san-
4D\	-na	.	4d\yy	-na	4f\yy	-na	4b\yy	-na
4BB/	in	.	(>8e\Lyy	in	(>8g\Lyy	in	4b\yy	in
.	.	.	8d\J)yy	.	8f\J)yy	.	.	.
4GG/	ex-	.	(>8c\Lyy	ex-	(>8e\Lyy	ex-	4b\yy	ex-
.	.	.	8B\J)yy	.	8d\J)yy	.	.	.
=60	=60	=60	=60	=60	=60	=60	=60	=60
4C/	-cel-	.	(>4c\yy	-cel-	(>4e\yy	-cel-	2g\yy	-cel-
4BB/	-sis	.	4d\)yy	.	4f\)yy	.	.	.
4C/	in	.	4c\yy	-sis	4e\yy	-sis	4g\yy	-sis
4E\	ex-	.	(>4e\yy	in	(>4g\yy	in	[>4cc\yy	in
=61	=61	=61	=61	=61	=61	=61	=61	=61
(>2F\	-cel-	.	4f\)yy	.	4a\)yy	.	4cc\]yy	.
.	.	.	(>8e\Lyy	ex-	(>8g\Lyy	ex-	4a\yy	ex-
.	.	.	8d\J)yy	.	8f\J)yy	.	.	.
2G\)	.	.	(>4c\yy	-cel-	(>4e\yy	-cel-	2g\yy	-cel-
.	.	.	4B\)yy	.	4d\)yy	.	.	.
=62	=62	=62	=62	=62	=62	=62	=62	=62
1C	-sis.	.	1cyy	-sis.	1eyy	-sis.	1gyy	-sis
==	==	==	==	==	==	==	==	==
*-	*-	*-	*-	*-	*-	*-	*-	*-
!!!system-decoration: [(s1,s2,s3,s4)]
!!!RDF**kern: > = above
!!!RDF**kern: < = below
!!!EED: Mateusz Mrugas
!!!EEV: 2021-02-04
!!!ENC: Berenika Jozajtis
!!!END: 2021-01-29
